svgs/solid/bed-front.svg

<svg xmlns="http://www.w3.org/2000/svg" viewBox="0 0 512 512"><!--! Font Awesome Pro 6.6.0 by @fontawesome - https://fontawesome.com License - https://fontawesome.com/license (Commercial License) Copyright 2024 Fonticons, Inc. --><path d="M32 80c0-26.5 21.5-48 48-48l352 0c26.5 0 48 21.5 48 48l0 129.1c-14.5-8.4-30.7-14-48-16.1c0-.3 0-.7 0-1l0-32c0-17.7-14.3-32-32-32l-96 0c-17.7 0-32 14.3-32 32l0 32-32 0 0-32c0-17.7-14.3-32-32-32l-96 0c-17.7 0-32 14.3-32 32l0 32c0 .3 0 .7 0 1c-17.3 2.2-33.6 7.8-48 16.1L32 80zM0 320c0-53 43-96 96-96l320 0c53 0 96 43 96 96l0 128c0 17.7-14.3 32-32 32s-32-14.3-32-32l0-32L64 416l0 32c0 17.7-14.3 32-32 32s-32-14.3-32-32L0 320z"/></svg>

<svg xmlns="http://www.w3.org/2000/svg" viewBox="0 0 512 512"><!--! Font Awesome Pro 6.4.0 by @fontawesome - https://fontawesome.com License - https://fontawesome.com/license (Commercial License) Copyright 2023 Fonticons, Inc. --><path d="M32 80c0-26.5 21.5-48 48-48H432c26.5 0 48 21.5 48 48V209.1c-14.5-8.4-30.7-14-48-16.1c0-.3 0-.7 0-1V160c0-17.7-14.3-32-32-32H304c-17.7 0-32 14.3-32 32v32H240V160c0-17.7-14.3-32-32-32H112c-17.7 0-32 14.3-32 32v32c0 .3 0 .7 0 1c-17.3 2.2-33.6 7.8-48 16.1V80zM0 320c0-53 43-96 96-96H416c53 0 96 43 96 96V448c0 17.7-14.3 32-32 32s-32-14.3-32-32V416H64v32c0 17.7-14.3 32-32 32s-32-14.3-32-32V320z"/></svg>
